static/assets/img/icons/theme/shopping/bitcoin.svg

<svg height="24" viewBox="0 0 24 24" width="24" xmlns="http://www.w3.org/2000/svg"><g fill="none" fill-rule="evenodd"><path d="m0 0h24v24h-24z" opacity="0"/><g fill="#000"><rect height="5" opacity=".3" rx="1" width="2" x="11" y="2"/><rect height="5" opacity=".3" rx="1" width="2" x="11" y="16"/><path d="m17.875 14.086c0 .7346703-.1456652 1.3521642-.437 1.8525s-.6776643.9024985-1.159 1.2065-1.0291636.5224993-1.6435.6555-1.2444968.1995-1.8905.1995h-5.745v-13.452h5.745c.5193359 0 1.0513306.05383279 1.596.1615.5446694.1076672 1.0386644.29133204 1.482.551s.8043319.61116445 1.083 1.0545.418 1.00699658.418 1.691c0 .74733707-.2026646 1.3648309-.608 1.8525s-.93733.8391656-1.596 1.0545c.3800019.1013337.7378317.2184991 1.0735.3895s.6269988.3894987.874.6555.4433326.5763316.589.931.2185.7536645.2185 1.197zm-3.686-5.643c0-.45600228-.1741649-.78849895-.5225-.9975-.3483351-.20900104-.8644966-.3135-1.5485-.3135h-1.596v2.774h1.748c.608003 0 1.0798317-.12349876 1.4155-.3705.3356683-.24700123.5035-.61116426.5035-1.0925zm.437 5.339c0-.5573361-.2089979-.9436656-.627-1.159s-.9753299-.323-1.672-.323h-1.805v3.078h1.824c.2533346 0 .5161653-.0221664.7885-.0665s.5193322-.1234994.741-.2375.402166-.275499.5415-.4845.209-.478165.209-.8075z"/></g></g></svg>

<svg width="24px" height="24px" viewBox="0 0 24 24" version="1.1" xmlns="http://www.w3.org/2000/svg" xmlns:xlink="http://www.w3.org/1999/xlink">
    <title>Icon For Bitcoin</title>
    <g stroke="none" stroke-width="1" fill="none" fill-rule="evenodd">
        <rect opacity="0" x="0" y="0" width="24" height="24"></rect>
        <rect fill="#000000" opacity="0.3" x="11" y="2" width="2" height="5" rx="1"></rect>
        <rect fill="#000000" opacity="0.3" x="11" y="16" width="2" height="5" rx="1"></rect>
        <path d="M17.875,14.086 C17.875,14.8206703 17.7293348,15.4381642 17.438,15.9385 C17.1466652,16.4388358 16.7603357,16.8409985 16.279,17.145 C15.7976643,17.4490015 15.2498364,17.6674993 14.6355,17.8005 C14.0211636,17.9335007 13.3910032,18 12.745,18 L7,18 L7,4.548 L12.745,4.548 C13.2643359,4.548 13.7963306,4.60183279 14.341,4.7095 C14.8856694,4.8171672 15.3796644,5.00083204 15.823,5.2605 C16.2663356,5.52016796 16.6273319,5.87166445 16.906,6.315 C17.1846681,6.75833555 17.324,7.32199658 17.324,8.006 C17.324,8.75333707 17.1213354,9.3708309 16.716,9.8585 C16.3106646,10.3461691 15.77867,10.6976656 15.12,10.913 C15.5000019,11.0143337 15.8578317,11.1314991 16.1935,11.3025 C16.5291683,11.4735009 16.8204988,11.6919987 17.0675,11.958 C17.3145012,12.2240013 17.5108326,12.5343316 17.6565,12.889 C17.8021674,13.2436684 17.875,13.6426645 17.875,14.086 Z M14.189,8.443 C14.189,7.98699772 14.0148351,7.65450105 13.6665,7.4455 C13.3181649,7.23649896 12.8020034,7.132 12.118,7.132 L10.522,7.132 L10.522,9.906 L12.27,9.906 C12.878003,9.906 13.3498317,9.78250124 13.6855,9.5355 C14.0211683,9.28849877 14.189,8.92433574 14.189,8.443 Z M14.626,13.782 C14.626,13.2246639 14.4170021,12.8383344 13.999,12.623 C13.5809979,12.4076656 13.0236701,12.3 12.327,12.3 L10.522,12.3 L10.522,15.378 L12.346,15.378 C12.5993346,15.378 12.8621653,15.3558336 13.1345,15.3115 C13.4068347,15.2671664 13.6538322,15.1880006 13.8755,15.074 C14.0971678,14.9599994 14.277666,14.798501 14.417,14.5895 C14.556334,14.380499 14.626,14.111335 14.626,13.782 Z" fill="#000000"></path>
    </g>
</svg>
